rospo-newyear-dark/symbolic/apps/help-contents-symbolic.svg

<svg height="16" width="16" xmlns="http://www.w3.org/2000/svg"><path d="m3 1c-.554 0-1 .446-1 1v13c0 .554.446 1 1 1h10c .554 0 1-.446 1-1v-10l-4-4zm5 5c1.1 0 2 .9 2 2s-.9 2-2 2v1h-1v-2h1c .55 0 1-.45 1-1s-.45-1-1-1-1 .45-1 1h-1c0-1.1.9-2 2-2zm-1 6h1v1h-1z" fill="#d3dae3"/></svg>

<svg xmlns="http://www.w3.org/2000/svg" width="16" height="16" version="1.1">
 <path style="fill:#d3dae3" d="M 3,1 C 2.446,1 2,1.446 2,2 V 15 C 2,15.554 2.446,16 3,16 H 13 C 13.554,16 14,15.554 14,15 V 5 L 10,1 Z M 8,6 C 9.1,6 10,6.9 10,8 10,9.1 9.1,10 8,10 V 11 H 7 V 9 H 8 C 8.55,9 9,8.55 9,8 9,7.45 8.55,7 8,7 7.45,7 7,7.45 7,8 H 6 C 6,6.9 6.9,6 8,6 Z M 7,12 H 8 V 13 H 7 Z"/>
</svg>
